X:34
T:Garland Dance. RDO.34
M:3/4
L:1/8
Q:3/4=50
S:Robert D. Owen MS,Indiana,1826.
R:.misc
O:Indiana,USA
A:New Harmony
Z:vmp.Chris Partington
K:G
b4a2|g2c’2b2|abc’abg|bagfed|!b4a2|g2c’2b2|ab/c’/ be’d’f|a4g2:|!
|:gfgabg|bagfe^d|e^defge|gfedcB|!
A^GABcd|edcBAG|abc’abg|bagf”DC”ed:|

